!!!COM: Music21
!!!OTL: Pasodoble de Lalín
!!!OMV: pezas_pasodobles_pasodoble-de-lalin_pasodoble-de-lalin-partitura-2.musicxml
**kern
*I"Bagpipes
*I'Bag
*clefG^2
*k[]
*M2/4
=1
!LO:TX:a:t=Vivace
4ccc
4gg
=
8eeL
8ccJ
8aaL
8ffJ
=
8ggL
8eeJ
8ffL
8ddJ
=
8ccL
16ggL
16aaJJ
16ggLL
16ff
16ee
16ddJJ
=
2cc
=||
4gg
8ggL
8ggJ
=
8ggL
8aaJ
8aaL
8ggJ
=
4.bb
24aaLL
24bb
24aaJJ
=
2gg
=
4.aa
24ggLL
24aa
24ggJJ
=
2ff
!!linebreak:original
=
4.bb
24aaLL
24bb
24aaJJ
=
4.gg
8ee
=
4gg
8ggL
8ggJ
=
8ggL
8aaJ
8aaL
8ggJ
=
4.bb
24aaLL
24bb
24aaJJ
=
2gg
=
4.aa
24ggLL
24aa
24ggJJ
=
8ffL
8ggJ
8ggL
8ffJ
=
4ee
4gg
=
2ee
=||
4gg
8ggL
8ggJ
=
8ggL
8aaJ
8aaL
8ggJ
!!linebreak:original
=
4.bb
24aaLL
24bb
24aaJJ
=
2gg
=
4.aa
24ggLL
24aa
24ggJJ
=
2ff
=
4.bb
24aaLL
24bb
24aaJJ
=
4.gg
8ee
=
4gg
8ggL
8ggJ
=
8ggL
8aaJ
8aaL
8ggJ
=
4.bb
24aaLL
24bb
24aaJJ
=
2gg
=
4.aa
24ggLL
24aa
24ggJJ
!!linebreak:original
=
8ffL
8ggJ
8ggL
8ffJ
=
4ee
4gg
=
8eeL
8ggJ
8aaL
8bbJ
=||
8cccL
[8cccJ
8.cccL]
16aaJk
=
8bbL
[8bbJ
8.bbL]
16aaJk
=
8ggL
16aaL
16ggJJ
[4ff
=
8ffL]
8ffJ
8ggL
8aaJ
=
8bbL
[8bbJ
8.bbL]
16ggJk
=
8aaL
[8aaJ
8.aaL]
16ggJk
=
8ffL
16ggL
16ffJJ
[4ee
!!linebreak:original
=
8eeL]
8ggJ
8aaL
8bbJ
=||
8cccL
[8cccJ
8.cccL]
16aaJk
=
8bbL
[8bbJ
8.bbL]
16aaJk
=
8ggL
16aaL
16ggJJ
[4ff
=
8ffL]
8ffJ
8ggL
8aaJ
=
8bbL
[8bbJ
8.bbL]
16ggJk
=
8aaL
[8aaJ
8.aaL]
16ggJk
=
8ffL
16ggL
16ffJJ
[4ee
=
4ee]
8eeL
8ffJ
=||
8ggL
16eeL
16ffJJ
[4gg
!!linebreak:original
=
4gg]
4bb
=
8aaL
16bbL
16aaJJ
[4gg
=
4gg]
8aaL
8ggJ
=
24bbLL
24ccc
24bbJJ
16aaLL
16ggJJ
[4ff
=
4ff]
4bb
=
8aaL
16bbL
16aaJJ
[4gg
=
4gg]
8eeL
8ffJ
=
8ggL
16eeL
16ffJJ
[4gg
=
4gg]
4bb
=
8aaL
16bbL
16aaJJ
[4gg
=
4gg]
8aaL
8ggJ
!!linebreak:original
=
24bbLL
24ccc
24bbJJ
16aaLL
16ggJJ
[4ff
=
4ff]
4gg
=
4ee
4gg
=
4ee
8eeL
8ffJ
=||
8ggL
16eeL
16ffJJ
[4gg
=
4gg]
4bb
=
8aaL
16bbL
16aaJJ
[4gg
=
4gg]
8aaL
8ggJ
=
24bbLL
24ccc
24bbJJ
16aaLL
16ggJJ
[4ff
=
4ff]
4bb
=
8aaL
16bbL
16aaJJ
[4gg
!!linebreak:original
=
4gg]
8eeL
8ffJ
=
8ggL
16eeL
16ffJJ
[4gg
=
4gg]
4bb
=
8aaL
16bbL
16aaJJ
[4gg
=
4gg]
8aaL
8ggJ
=
24bbLL
24ccc
24bbJJ
16aaLL
16ggJJ
[4ff
=
4ff]
4gg
=
4ee
4gg
=
2cc
==
*-
